;FLAVOR:Marlin
;TIME:1204
;Filament used: 0.850326m
;Layer height: 0.32
;MINX:68.9
;MINY:81.4
;MINZ:0.3
;MAXX:136.1
;MAXY:123.6
;MAXZ:30.7
;Generated with Cura_SteamEngine 4.4.1
M104 S200
M105
M109 S200
M82 ;absolute extrusion mode
G21 ;metric values
G90 ;absolute positioning
M82 ;set extruder to absolute mode
M107 ;start with the fan off
G28 X0 Y0 ;move X/Y to min endstops
G28 Z0 ;move Z to min endstops
G1 Z15.0 F9000 ;move the platform down 15mm
G92 E0 ;zero the extruded length
G1 F200 E6 ;extrude 6 mm of feed stock
G92 E0 ;zero the extruded length again
G1 F9000
;Put printing message on LCD screen
M117 Printing...
G92 E0
G92 E0
G1 F1500 E-6.5
;LAYER_COUNT:96
;LAYER:0
M107
G0 F3600 X70.298 Y82.17 Z0.3
;TYPE:SKIRT
G1 F1500 E0
G1 F2700 X70.745 Y81.873 E0.0101
G1 X71.23 Y81.645 E0.02018
G1 X71.744 Y81.492 E0.03026
G1 X72.407 Y81.411 E0.04283
G1 X72.72 Y81.402 E0.04872
G1 X72.823 Y81.401 E0.05066
G1 X131.793 Y81.4 E1.15991
G1 X131.845 Y81.4 E1.16089
G1 X132.543 Y81.41 E1.17402
G1 X133.077 Y81.458 E1.18411
G1 X133.598 Y81.584 E1.19419
G1 X134.095 Y81.787 E1.20429
G1 X134.556 Y82.061 E1.21438
G1 X134.971 Y82.4 E1.22446
G1 X135.331 Y82.798 E1.23455
G1 X135.628 Y83.244 E1.24463
G1 X135.856 Y83.73 E1.25473
G1 X136.008 Y84.244 E1.26481
G1 X136.09 Y84.909 E1.27742
G1 X136.099 Y85.229 E1.28344
G1 X136.1 Y85.33 E1.28534
G1 X136.1 Y114.337 E1.83098
G1 X136.092 Y114.895 E1.84147
G1 X136.088 Y115.004 E1.84353
G1 X136.061 Y115.608 E1.8549
G1 X136.038 Y115.889 E1.8602
G1 X135.989 Y116.285 E1.86771
G1 X135.937 Y116.592 E1.87356
G1 X135.846 Y117.02 E1.8818
G1 X135.736 Y117.421 E1.88962
G1 X135.522 Y118.056 E1.90222
G1 X135.389 Y118.393 E1.90904
G1 X135.301 Y118.587 E1.91304
G1 X135.235 Y118.727 E1.91596
G1 X135.041 Y119.11 E1.92403
G1 X134.893 Y119.372 E1.92969
G1 X134.774 Y119.565 E1.93396
G1 X134.676 Y119.717 E1.93736
G1 X134.44 Y120.06 E1.94519
G1 X134.263 Y120.295 E1.95072
G1 X134.13 Y120.458 E1.95468
G1 X134.013 Y120.595 E1.95807
G1 X133.705 Y120.936 E1.96671
G1 X133.507 Y121.138 E1.97203
G1 X133.358 Y121.279 E1.97589
G1 X133.22 Y121.403 E1.97938
G1 X132.894 Y121.681 E1.98744
G1 X132.669 Y121.858 E1.99283
G1 X132.488 Y121.989 E1.99703
G1 X132.342 Y122.089 E2.00036
G1 X131.966 Y122.334 E2.0088
G1 X131.6 Y122.544 E2.01674
G1 X131.138 Y122.773 E2.02644
G1 X130.778 Y122.927 E2.0338
G1 X130.063 Y123.189 E2.04813
G1 X129.676 Y123.307 E2.05574
G1 X129.442 Y123.364 E2.06027
G1 X129.251 Y123.405 E2.06394
G1 X128.828 Y123.484 E2.07204
G1 X128.427 Y123.536 E2.07964
G1 X127.971 Y123.569 E2.08824
G1 X127.778 Y123.577 E2.09188
G1 X126.654 Y123.598 E2.11302
G1 X126.586 Y123.599 E2.1143
G1 X116.124 Y123.595 E2.3111
G1 X115.779 Y123.6 E2.31759
G1 X78.304 Y123.6 E3.02252
G1 X77.482 Y123.588 E3.03798
G1 X77.393 Y123.585 E3.03965
G1 X77.19 Y123.577 E3.04348
G1 X77.096 Y123.572 E3.04525
G1 X76.64 Y123.542 E3.05384
G1 X76.237 Y123.493 E3.06148
G1 X75.832 Y123.42 E3.06922
G1 X75.718 Y123.397 E3.07141
G1 X75.475 Y123.345 E3.07608
G1 X75.075 Y123.235 E3.08389
G1 X74.439 Y123.02 E3.09651
G1 X74.105 Y122.888 E3.10327
G1 X73.911 Y122.8 E3.10728
G1 X73.768 Y122.732 E3.11026
G1 X73.386 Y122.538 E3.11831
G1 X73.124 Y122.391 E3.12397
G1 X72.933 Y122.273 E3.12819
G1 X72.783 Y122.175 E3.13156
G1 X72.436 Y121.936 E3.13949
G1 X72.208 Y121.765 E3.14485
G1 X72.048 Y121.635 E3.14872
G1 X71.92 Y121.526 E3.15189
G1 X71.574 Y121.217 E3.16061
G1 X71.321 Y120.968 E3.16729
G1 X71.185 Y120.82 E3.17107
G1 X71.097 Y120.72 E3.17358
G1 X70.819 Y120.394 E3.18164
G1 X70.642 Y120.169 E3.18702
G1 X70.511 Y119.988 E3.19122
G1 X70.408 Y119.838 E3.19465
G1 X70.158 Y119.453 E3.20328
G1 X69.95 Y119.088 E3.21118
G1 X69.725 Y118.633 E3.22073
G1 X69.571 Y118.275 E3.22806
G1 X69.31 Y117.562 E3.24234
G1 X69.193 Y117.176 E3.24993
G1 X69.136 Y116.942 E3.25446
G1 X69.094 Y116.746 E3.25823
G1 X69.014 Y116.314 E3.2665
G1 X68.963 Y115.914 E3.27408
G1 X68.931 Y115.466 E3.28253
G1 X68.923 Y115.277 E3.28609
G1 X68.902 Y114.157 E3.30716
G1 X68.901 Y114.09 E3.30842
G1 X68.9 Y85.7 E3.84245
G1 X68.9 Y85.648 E3.84343
G1 X68.91 Y84.958 E3.85641
G1 X68.958 Y84.424 E3.8665
G1 X69.085 Y83.903 E3.87658
G1 X69.287 Y83.406 E3.88668
G1 X69.561 Y82.945 E3.89676
G1 X69.901 Y82.53 E3.90686
G1 X70.298 Y82.17 E3.91694
G0 F3600 X70.684 Y82.382
G1 F2700 X71.12 Y82.127 E3.92644
G1 X71.592 Y81.945 E3.93595
G1 X72.086 Y81.838 E3.94546
G1 X72.418 Y81.811 E3.95173
G1 X72.731 Y81.802 E3.95762
G1 X72.823 Y81.801 E3.95935
G1 X131.793 Y81.8 E5.06861
G1 X131.839 Y81.8 E5.06947
G1 X132.537 Y81.81 E5.0826
G1 X133.04 Y81.857 E5.09211
G1 X133.53 Y81.983 E5.10162
G1 X133.994 Y82.185 E5.11114
G1 X134.42 Y82.457 E5.12065
G1 X134.798 Y82.792 E5.13015
G1 X135.118 Y83.183 E5.13965
G1 X135.373 Y83.62 E5.14917
G1 X135.556 Y84.091 E5.15868
G1 X135.663 Y84.585 E5.16818
G1 X135.69 Y84.92 E5.17451
G1 X135.699 Y85.24 E5.18053
G1 X135.7 Y85.33 E5.18222
G1 X135.7 Y114.331 E5.72775
G1 X135.692 Y114.889 E5.73824
G1 X135.689 Y114.986 E5.74007
G1 X135.662 Y115.59 E5.75144
G1 X135.641 Y115.84 E5.75616
G1 X135.592 Y116.236 E5.76367
G1 X135.546 Y116.508 E5.76886
G1 X135.455 Y116.936 E5.77709
G1 X135.357 Y117.293 E5.78405
G1 X135.143 Y117.928 E5.79666
G1 X135.025 Y118.228 E5.80272
G1 X134.937 Y118.422 E5.80673
G1 X134.878 Y118.546 E5.80931
G1 X134.684 Y118.929 E5.81739
G1 X134.553 Y119.162 E5.82241
G1 X134.434 Y119.355 E5.82668
G1 X134.346 Y119.49 E5.82971
G1 X134.11 Y119.833 E5.83754
G1 X133.953 Y120.042 E5.84246
G1 X133.82 Y120.205 E5.84642
G1 X133.716 Y120.327 E5.84943
G1 X133.408 Y120.668 E5.85808
G1 X133.232 Y120.847 E5.8628
G1 X133.083 Y120.988 E5.86666
G1 X132.96 Y121.099 E5.86977
G1 X132.634 Y121.377 E5.87783
G1 X132.434 Y121.534 E5.88261
G1 X132.253 Y121.665 E5.88682
G1 X132.124 Y121.754 E5.88977
G1 X131.748 Y121.999 E5.89821
G1 X131.422 Y122.185 E5.90527
G1 X130.96 Y122.414 E5.91497
G1 X130.64 Y122.552 E5.92152
G1 X129.925 Y122.814 E5.93585
G1 X129.581 Y122.918 E5.94261
G1 X129.347 Y122.975 E5.94714
G1 X129.177 Y123.012 E5.95041
G1 X128.754 Y123.091 E5.9585
G1 X128.398 Y123.137 E5.96526
G1 X127.942 Y123.17 E5.97386
G1 X127.771 Y123.177 E5.97708
G1 X126.647 Y123.198 E5.99822
G1 X126.586 Y123.199 E5.99937
G1 X116.118 Y123.195 E6.19628
G1 X115.773 Y123.2 E6.20277
G1 X78.31 Y123.2 E6.90747
G1 X77.488 Y123.188 E6.92293
G1 X77.409 Y123.186 E6.92442
G1 X77.206 Y123.178 E6.92824
G1 X77.122 Y123.173 E6.92982
G1 X76.666 Y123.143 E6.93842
G1 X76.308 Y123.099 E6.9452
G1 X75.903 Y123.026 E6.95295
G1 X75.801 Y123.006 E6.9549
G1 X75.558 Y122.954 E6.95958
G1 X75.203 Y122.856 E6.9665
G1 X74.567 Y122.641 E6.97913
G1 X74.27 Y122.524 E6.98514
G1 X74.076 Y122.436 E6.98914
G1 X73.949 Y122.375 E6.99179
G1 X73.567 Y122.181 E6.99985
G1 X73.334 Y122.05 E7.00488
G1 X73.143 Y121.932 E7.0091
G1 X73.01 Y121.845 E7.01209
G1 X72.663 Y121.606 E7.02002
G1 X72.46 Y121.455 E7.02478
G1 X72.3 Y121.325 E7.02866
G1 X72.186 Y121.228 E7.03147
G1 X71.84 Y120.919 E7.0402
G1 X71.616 Y120.697 E7.04613
G1 X71.48 Y120.549 E7.04991
G1 X71.401 Y120.46 E7.05215
G1 X71.123 Y120.134 E7.06021
G1 X70.966 Y119.934 E7.06499
G1 X70.835 Y119.753 E7.06919
G1 X70.743 Y119.62 E7.07224
G1 X70.493 Y119.235 E7.08087
G1 X70.309 Y118.91 E7.0879
G1 X70.084 Y118.455 E7.09744
G1 X69.947 Y118.137 E7.10396
G1 X69.686 Y117.424 E7.11824
G1 X69.582 Y117.081 E7.12498
G1 X69.525 Y116.847 E7.12951
G1 X69.487 Y116.673 E7.13286
G1 X69.407 Y116.241 E7.14113
G1 X69.362 Y115.886 E7.14786
G1 X69.33 Y115.438 E7.15631
G1 X69.323 Y115.27 E7.15947
G1 X69.302 Y114.15 E7.18054
G1 X69.301 Y114.09 E7.18167
G1 X69.3 Y85.7 E7.7157
G1 X69.3 Y85.654 E7.71657
G1 X69.31 Y84.964 E7.72955
G1 X69.358 Y84.46 E7.73907
G1 X69.483 Y83.971 E7.74857
G1 X69.685 Y83.507 E7.75809
G1 X69.957 Y83.081 E7.76759
G1 X70.293 Y82.703 E7.77711
G1 X70.684 Y82.382 E7.78662
G1 F1500 E1.28662
;MESH:Kabelhalterung v3.stl
G0 F3600 X72.714 Y84.335
G0 X72.714 Y85.214
G0 X118.54 Y117.485
G0 X119.093 Y118.161
G0 X119.216 Y119.469
G0 X119.122 Y119.437
;TYPE:WALL-OUTER
G1 F1500 E7.78662
G1 F2700 X119.126 Y119.415 E7.78704
G1 X119.208 Y119.016 E7.7947
G1 X119.185 Y118.587 E7.80279
G1 X119.057 Y118.177 E7.81087
G1 X118.829 Y117.812 E7.81896
G1 X118.517 Y117.517 E7.82704
G1 X118.142 Y117.309 E7.8351
G1 X117.727 Y117.201 E7.84317
G1 X117.297 Y117.201 E7.85126
G1 X116.88 Y117.309 E7.85936
G1 X116.505 Y117.517 E7.86743
G1 X116.193 Y117.812 E7.87551
G1 X115.966 Y118.177 E7.88359
G1 X115.837 Y118.587 E7.89168
G1 X115.814 Y119.016 E7.89976
G1 X115.896 Y119.416 E7.90744
G1 X115.9 Y119.437 E7.90784
G1 X116.077 Y119.8 E7.91544
G1 X115.9 Y119.8 E7.91616
G1 X115.878 Y119.8 E7.91656
G1 X89.136 Y119.8 E8.41959
G1 X89.068 Y119.8 E8.42087
G1 X88.888 Y119.8 E8.42426
G1 X89.068 Y119.502 E8.42805
G1 X89.087 Y119.437 E8.42919
G1 X89.191 Y119.098 E8.43586
G1 X89.21 Y118.676 E8.44381
G1 X89.125 Y118.263 E8.45174
G1 X88.941 Y117.883 E8.45968
G1 X88.669 Y117.56 E8.46762
G1 X88.326 Y117.314 E8.47556
G1 X87.933 Y117.16 E8.4835
G1 X87.514 Y117.107 E8.49145
G1 X87.094 Y117.16 E8.49941
G1 X86.702 Y117.314 E8.50733
G1 X86.358 Y117.56 E8.51529
G1 X86.086 Y117.883 E8.52323
G1 X85.902 Y118.263 E8.53117
G1 X85.817 Y118.676 E8.53911
G1 X85.837 Y119.098 E8.54705
G1 X85.941 Y119.437 E8.55372
G1 X85.96 Y119.502 E8.555
G1 X86.141 Y119.8 E8.56156
G1 X85.96 Y119.8 E8.5622
G1 X85.892 Y119.8 E8.56335
G1 X77.66 Y119.8 E8.7182
G1 X76.877 Y119.76 E8.73294
G1 X76.262 Y119.638 E8.74474
G1 X75.676 Y119.439 E8.75638
G1 X75.101 Y119.158 E8.76842
G1 X74.583 Y118.813 E8.78013
G1 X74.11 Y118.398 E8.79196
G1 X73.695 Y117.926 E8.80378
G1 X73.345 Y117.404 E8.81561
G1 X73.07 Y116.843 E8.82736
G1 X72.865 Y116.246 E8.83923
G1 X72.743 Y115.632 E8.85101
G1 X72.701 Y114.99 E8.86311
G1 X72.7 Y85.4 E9.41971
G1 X72.7 Y85.2 E9.42348
G1 X72.9 Y85.2 E9.42591
G1 X132.3 Y85.2 E10.54326
G1 X132.3 Y114.987 E11.10357
G1 X132.26 Y115.623 E11.11556
G1 X132.138 Y116.238 E11.12735
G1 X131.939 Y116.824 E11.13899
G1 X131.658 Y117.399 E11.15103
G1 X131.313 Y117.917 E11.16274
G1 X130.898 Y118.39 E11.17457
G1 X130.426 Y118.805 E11.1864
G1 X129.904 Y119.155 E11.19822
G1 X129.343 Y119.43 E11.20997
G1 X128.746 Y119.635 E11.22184
G1 X128.135 Y119.757 E11.23356
G1 X127.49 Y119.799 E11.24572
G1 X119.146 Y119.799 E11.40268
G1 X119.123 Y119.799 E11.4031
G1 X118.944 Y119.8 E11.40646
G1 X119.122 Y119.437 E11.41144
G0 F3600 X119.126 Y119.415
G0 X119.161 Y119.241
G0 X119.525 Y119.41
;TYPE:SKIN
G1 F2700 X119.6 Y119.045 E11.41845
G1 X119.571 Y118.517 E11.4284
G1 X119.414 Y118.013 E11.43833
G1 X119.133 Y117.563 E11.44831
G1 X118.749 Y117.199 E11.45826
G1 X118.288 Y116.944 E11.46817
G1 X117.777 Y116.811 E11.47811
G1 X117.248 Y116.811 E11.48806
G1 X116.734 Y116.944 E11.49804
G1 X116.273 Y117.199 E11.50795
G1 X115.889 Y117.563 E11.51791
G1 X115.609 Y118.013 E11.52788
G1 X115.451 Y118.517 E11.53781
G1 X115.422 Y119.045 E11.54776
G1 X115.497 Y119.41 E11.55477
G1 X89.504 Y119.41 E12.04371
G1 X89.579 Y119.164 E12.04855
G1 X89.602 Y118.645 E12.05832
G1 X89.497 Y118.136 E12.0681
G1 X89.271 Y117.669 E12.07786
G1 X88.936 Y117.271 E12.08764
G1 X88.513 Y116.969 E12.09742
G1 X88.03 Y116.78 E12.10717
G1 X87.514 Y116.713 E12.11696
G1 X86.997 Y116.78 E12.12677
G1 X86.515 Y116.969 E12.13651
G1 X86.091 Y117.271 E12.1463
G1 X85.756 Y117.669 E12.15608
G1 X85.53 Y118.136 E12.16584
G1 X85.425 Y118.645 E12.17562
G1 X85.449 Y119.165 E12.18541
G1 X85.524 Y119.41 E12.19023
G1 X77.68 Y119.41 E12.33778
G1 X76.918 Y119.371 E12.35213
G1 X76.364 Y119.261 E12.36276
G1 X75.831 Y119.08 E12.37335
G1 X75.288 Y118.816 E12.3847
G1 X74.826 Y118.508 E12.39515
G1 X74.387 Y118.121 E12.40616
G1 X74.003 Y117.685 E12.41709
G1 X73.687 Y117.214 E12.42775
G1 X73.43 Y116.689 E12.43875
G1 X73.24 Y116.139 E12.4497
G1 X73.131 Y115.589 E12.46024
G1 X73.091 Y114.965 E12.472
G1 X73.09 Y85.59 E13.02456
G1 X131.91 Y85.59 E14.131
G1 X131.91 Y114.962 E14.68351
G1 X131.871 Y115.582 E14.69519
G1 X131.762 Y116.132 E14.70574
G1 X131.58 Y116.669 E14.7164
G1 X131.316 Y117.212 E14.72776
G1 X131.005 Y117.677 E14.73828
G1 X130.625 Y118.11 E14.74912
G1 X130.185 Y118.497 E14.76014
G1 X129.714 Y118.813 E14.77081
G1 X129.189 Y119.07 E14.78181
G1 X128.639 Y119.26 E14.79275
G1 X128.094 Y119.368 E14.8032
G1 X127.465 Y119.409 E14.81506
G1 X119.525 Y119.41 E14.96442
G0 F3600 X131.729 Y85.909
G1 F2700 X131.59 Y85.769 E14.96813
G0 F3600 X131.024 Y85.769
G1 F2700 X131.729 Y86.474 E14.98688
G0 F3600 X131.729 Y87.04
G1 F2700 X130.459 Y85.769 E15.02068
G0 F3600 X129.893 Y85.769
G1 F2700 X131.729 Y87.606 E15.06954
G0 F3600 X131.729 Y88.171
G1 F2700 X129.327 Y85.769 E15.13343
G0 F3600 X128.762 Y85.769
G1 F2700 X131.729 Y88.737 E15.21238
G0 F3600 X131.729 Y89.303
G1 F2700 X128.196 Y85.769 E15.30637
G0 F3600 X127.63 Y85.769
G1 F2700 X131.729 Y89.869 E15.41543
G0 F3600 X131.729 Y90.434
G1 F2700 X127.064 Y85.769 E15.53953
G0 F3600 X126.499 Y85.769
G1 F2700 X131.729 Y91 E15.67867
G0 F3600 X131.729 Y91.566
G1 F2700 X125.933 Y85.769 E15.83287
G0 F3600 X125.367 Y85.769
G1 F2700 X131.729 Y92.131 E16.00211
G0 F3600 X131.729 Y92.697
G1 F2700 X124.802 Y85.769 E16.1864
G0 F3600 X124.236 Y85.769
G1 F2700 X131.729 Y93.263 E16.38574
G0 F3600 X131.729 Y93.828
G1 F2700 X123.67 Y85.769 E16.60013
G0 F3600 X123.105 Y85.769
G1 F2700 X131.729 Y94.394 E16.82956
G0 F3600 X131.729 Y94.96
G1 F2700 X122.539 Y85.769 E17.07405
G0 F3600 X121.973 Y85.769
G1 F2700 X131.729 Y95.525 E17.33358
G0 F3600 X131.729 Y96.091
G1 F2700 X121.408 Y85.769 E17.60815
G0 F3600 X120.842 Y85.769
G1 F2700 X131.729 Y96.657 E17.89778
G0 F3600 X131.729 Y97.222
G1 F2700 X120.276 Y85.769 E18.20246
G0 F3600 X119.711 Y85.769
G1 F2700 X131.729 Y97.788 E18.52217
G0 F3600 X131.729 Y98.354
G1 F2700 X119.145 Y85.769 E18.85695
G0 F3600 X118.579 Y85.769
G1 F2700 X131.729 Y98.919 E19.20677
G0 F3600 X131.729 Y99.485
G1 F2700 X118.014 Y85.769 E19.57163
G0 F3600 X117.448 Y85.769
G1 F2700 X131.729 Y100.051 E19.95155
G0 F3600 X131.729 Y100.617
G1 F2700 X116.882 Y85.769 E20.34652
G0 F3600 X116.316 Y85.769
G1 F2700 X131.729 Y101.182 E20.75654
G0 F3600 X131.729 Y101.748
G1 F2700 X115.751 Y85.769 E21.1816
G0 F3600 X115.185 Y85.769
G1 F2700 X131.729 Y102.314 E21.62172
G0 F3600 X131.729 Y102.879
G1 F2700 X114.619 Y85.769 E22.07689
G0 F3600 X114.054 Y85.769
G1 F2700 X131.729 Y103.445 E22.54709
G0 F3600 X131.729 Y104.011
G1 F2700 X113.488 Y85.769 E23.03236
G0 F3600 X112.922 Y85.769
G1 F2700 X131.729 Y104.576 E23.53266
G0 F3600 X131.729 Y105.142
G1 F2700 X112.357 Y85.769 E24.04801
G0 F3600 X111.791 Y85.769
G1 F2700 X131.729 Y105.708 E24.57842
G0 F3600 X131.729 Y106.273
G1 F2700 X111.225 Y85.769 E25.12387
G0 F3600 X110.66 Y85.769
G1 F2700 X131.729 Y106.839 E25.68436
G0 F3600 X131.729 Y107.405
G1 F2700 X110.094 Y85.769 E26.25991
G0 F3600 X109.528 Y85.769
G1 F2700 X131.729 Y107.97 E26.85051
G0 F3600 X131.729 Y108.536
G1 F2700 X108.963 Y85.769 E27.45615
G0 F3600 X108.397 Y85.769
G1 F2700 X131.729 Y109.102 E28.07684
G0 F3600 X131.729 Y109.668
G1 F2700 X107.831 Y85.769 E28.71259
G0 F3600 X107.265 Y85.769
G1 F2700 X131.729 Y110.233 E29.36339
G0 F3600 X131.729 Y110.799
G1 F2700 X106.7 Y85.769 E30.02922
G0 F3600 X106.134 Y85.769
G1 F2700 X131.729 Y111.365 E30.71012
G0 F3600 X131.729 Y111.93
G1 F2700 X105.568 Y85.769 E31.40606
G0 F3600 X105.003 Y85.769
G1 F2700 X131.729 Y112.496 E32.11704
G0 F3600 X131.729 Y113.062
G1 F2700 X104.437 Y85.769 E32.84308
G0 F3600 X103.871 Y85.769
G1 F2700 X131.729 Y113.627 E33.58416
G0 F3600 X131.729 Y114.193
G1 F2700 X103.306 Y85.769 E34.34029
G0 F3600 X102.74 Y85.769
G1 F2700 X131.729 Y114.759 E35.11147
G0 F3600 X131.707 Y115.302
G1 F2700 X102.174 Y85.769 E35.89711
G0 F3600 X101.609 Y85.769
G1 F2700 X131.643 Y115.804 E36.69609
G0 F3600 X131.529 Y116.256
G1 F2700 X101.043 Y85.769 E37.5071
G0 F3600 X100.477 Y85.769
G1 F2700 X131.379 Y116.671 E38.32916
G0 F3600 X131.193 Y117.05
G1 F2700 X99.912 Y85.769 E39.1613
G0 F3600 X99.346 Y85.769
G1 F2700 X130.974 Y117.398 E40.00269
G0 F3600 X130.729 Y117.718
G1 F2700 X98.78 Y85.769 E40.8526
G0 F3600 X98.215 Y85.769
G1 F2700 X130.459 Y118.014 E41.71037
G0 F3600 X130.158 Y118.279
G1 F2700 X97.649 Y85.769 E42.5752
G0 F3600 X97.083 Y85.769
G1 F2700 X129.83 Y118.516 E43.44634
G0 F3600 X129.475 Y118.727
G1 F2700 X96.517 Y85.769 E44.32309
